X: 1
T: the Earl's Chair
R: reel
Z: 2006 John Chambers <jc@trillian.mit.edu>
M: C|
L: 1/8
K: Bm
A \
| "Bm"B2Bd BAFA | "(G)"B2dB "(A7)"BAFB | "D"AFF2 DFF2 |     AFdB    ADFA | 
| "Bm"B2Bd BAFA | "(G)"B2dB "(A7)"BAFB | "D"AFAB defd | "A7"edef "D"d3  :| 
f \
|:"Em"e2ef "Bm"d2df | "Em"edef "Bm"dBAB | "Em"e2ef "D"d2de | "Bm"fedB "D"ADFA | 
| "Em"e2ef "Bm"dBB2 | "Em"gBB2  "D"defg | "Bm"afbf "D"afeg | "Bm"fedB "D"ADFA :|
